X:1
T:Cova da Iria, LMD
T:Cova da Iria, LMD
T:John Robson Sweney, 1878
T:Public Domain Courtesy of the Cyber Hymnal™
C:John Robson Sweney, 1878
Z:Public Domain
Z:Courtesy of the Cyber Hymnal™
%%score ( 1 2 ) ( 3 4 )
L:1/8
Q:1/4=96
M:4/4
K:C
V:1 treble 
V:2 treble 
V:3 bass 
V:4 bass 
V:1
 ([CE][DF]) | [EG]3 [EG] [FA][EG] [Ec]>[Fd] | [Ec]6 [Gc]2 | [GB]>[FA] [FA]4 [GB]2 | %4
 [FA]>[EG] [EG]4 [CE][DF] | [EG]3 [EG] [FA][EG] [Ec]>[Fd] | [Ec]6 [Ec]2 | [DB]>[DA] [Dc]4 [D^F]2 | %8
 [DA]>[DG] [DG]4 G2 | [Fd]3 [Ec] [GB][FA] [EG]>[DF] | [CE]6 [EG]2 | [EG]>[DF] [FB]4 [FA]2 | %12
 [FA]>[EG] [Ec]4 [Ec]2 | [Fd]3 [Ec] [Ge][Fd] [Ec]>[DB] | [Ec]6 G2 | [FA]>[FA] [Fc]4 [Fc]2 | %16
 [FB]3 [Fd] !fermata![Ec]2 |] %17
V:2
 x2 | x8 | x8 | x8 | x8 | x8 | x8 | x8 | x6 G2 | x8 | x8 | x8 | x8 | x8 | x6 G2 | x8 | x6 |] %17
V:3
 [C,G,]2 | [C,C]3 [C,C] [C,C][C,C] [C,G,]>[C,G,] | [C,G,]6 [E,C]2 | [F,C]>[F,C] [F,C]4 [F,C]2 | %4
 [C,C]>[C,C] [C,C]4 [C,G,]2 | [C,C]3 [C,C] [C,C][C,C] [C,G,]>[C,G,] | [C,G,]6 [C,G,]2 | %7
 [D,G,]>[D,^F,] [D,A,]4 [D,C]2 | [G,C]>[G,B,] [G,B,]4 G,2 | G,3 G, G,G, G,>G, | [C,G,]6 [G,C]2 | %11
 [G,C]>[G,B,] [G,D]4 [G,,B,]2 | [C,C]>[C,C] [C,G,]4 [C,G,]2 | G,3 G, G,G, G,>G, | [C,G,]6 [E,C]2 | %15
 [F,C]>[F,C] [F,A,]4 [F,A,]2 | G,3 [G,,G,] !fermata![C,G,]2 |] %17
V:4
 x2 | x8 | x8 | x8 | x8 | x8 | x8 | x8 | x6 G,2 | G,3 G, G,G, G,>G, | x8 | x8 | x8 | %13
 G,3 G, G,G, G,>G, | x8 | x8 | G,3 x3 |] %17

